; generated by PrusaSlicer 2.9.2 on 2026-05-11 at 00:37:32 UTC


;
;
; 

; external perimeters extrusion width = 0.45mm
; perimeters extrusion width = 0.45mm
; infill extrusion width = 0.45mm
; solid infill extrusion width = 0.45mm
; top infill extrusion width = 0.40mm
; first layer extrusion width = 0.42mm

M73 P0 R20
M73 Q0 S20
M201 X1000 Y1000 Z200 E5000 ; sets maximum accelerations, mm/sec^2
M203 X200 Y200 Z12 E120 ; sets maximum feedrates, mm / sec
M204 S1250 T1250 ; sets acceleration (S) and retract acceleration (R), mm/sec^2
M205 X8.00 Y8.00 Z0.40 E4.50 ; sets the jerk limits, mm/sec
M205 S0 T0 ; sets the minimum extruding and travel feed rate, mm/sec

; printing object canards.stl id:0 copy 0
; stop printing object canards.stl id:0 copy 0

;TYPE:Custom
M862.3 P "MK3S" ; printer model check
M862.1 P0.4 ; nozzle diameter check
M115 U3.14.1 ; tell printer latest fw version
G90 ; use absolute coordinates
M83 ; extruder relative mode
M104 S215 ; set extruder temp
M140 S60 ; set bed temp
M190 S60 ; wait for bed temp
M109 S215 ; wait for extruder temp
G28 W ; home all without mesh bed level
G80 X101.366 Y112.924 W49.1538 H11.7245 ; mesh bed levelling

G1 Z0.2 F720
G1 Y-3 F1000 ; go outside print area
G92 E0
G1 X60 E9 F1000 ; intro line
G1 X100 E12.5 F1000 ; intro line

G92 E0
M221 S95

; Don't change E values below. Excessive value can damage the printer.
M907 E430 ; set extruder motor current
G21 ; set units to millimeters
G90 ; use absolute coordinates
M83 ; use relative distances for extrusion

M900 K0.05 ; Filament gcode LA 1.5
M900 K30 ; Filament gcode LA 1.0




M107
;LAYER_CHANGE
;Z:0.2
;HEIGHT:0.2
G1 E-.8 F2100
G1 Z.6 F720
G1 X102.307 Y116.869 F10800
G1 Z.2 F720
G1 E.8 F2100
M204 S800
;TYPE:Skirt/Brim
;WIDTH:0.42
G1 F1200
G1 X103.719 Y116.194 E.04907
G1 X126.04 Y113.136 E.7064
G1 X136.876 Y113.18 E.33976
G1 X148.291 Y115.229 E.36363
G1 X149.563 Y115.857 E.04448
G1 X150.308 Y117.064 E.04447
G1 X150.297 Y118.483 E.04449
G1 X149.534 Y119.679 E.04448
G1 X148.389 Y120.26 E.04026
G1 X129.591 Y124.4 E.60352
G1 X129.033 Y124.46 E.0176
G1 X126.045 Y124.427 E.09369
G1 X103.697 Y121.275 E.70764
G1 X102.405 Y120.69 E.04447
M73 P1 R20
M73 Q1 S20
G1 X101.62 Y119.508 E.04449
G1 X101.584 Y118.09 E.04447
G1 X102.276 Y116.921 E.04259
M204 S1000
G1 X102.621 Y117.21 F10800
M204 S800
G1 F1200
G1 X102.888 Y116.892 E.01302
G1 X103.77 Y116.568 E.02946
G1 X126.09 Y113.509 E.70637
G1 X136.81 Y113.551 E.33612
G1 X148.224 Y115.601 E.3636
G1 X149.384 Y116.206 E.04102
G1 X149.991 Y117.365 E.04102
G1 X149.828 Y118.663 E.04102
G1 X148.955 Y119.636 E.04099
G1 X148.308 Y119.892 E.02182
G1 X129.51 Y124.031 E.60352
G1 X129.034 Y124.083 E.01501
G1 X126.097 Y124.054 E.09209
G1 X103.752 Y120.901 E.70755
G1 X102.573 Y120.335 E.04101
G1 X101.928 Y119.197 E.04101
G1 X102.047 Y117.894 E.04102
G1 X102.583 Y117.256 E.02613
M204 S1000
;WIPE_START
G1 F8640
G1 X102.621 Y117.21 E-.01378
G1 X102.888 Y116.892 E-.09588
G1 X103.77 Y116.568 E-.21696
G1 X105.801 Y116.29 E-.47338
;WIPE_END
G1 Z.6 F720
; printing object canards.stl id:0 copy 0
G1 X120.367 Y116.825 F10800
G1 Z.2 F720
G1 E.8 F2100
M204 S800
;TYPE:External perimeter
;WIDTH:0.641136
G1 F1200
G1 X121.371 Y116.646 E.05073
;WIDTH:0.5981
G1 X122.374 Y116.467 E.04703
;WIDTH:0.555064
G1 X123.378 Y116.288 E.04343
;WIDTH:0.512028
G1 X124.381 Y116.11 E.03973
;WIDTH:0.468992
G1 X125.385 Y115.931 E.03613
;WIDTH:0.425956
G1 X126.388 Y115.752 E.03245
M204 S1000
;WIPE_START
G1 F8640
G1 X125.385 Y115.931 E-.23525
G1 X124.381 Y116.11 E-.23548
G1 X123.378 Y116.288 E-.23521
G1 X122.977 Y116.36 E-.09406
;WIPE_END
G1 Z.6 F720
G1 X120.367 Y116.825 F10800
G1 Z.2 F720
G1 E.8 F2100
M204 S800
;WIDTH:0.641136
G1 F1200
G1 X120.307 Y116.862 E.00351
;WIDTH:0.593975
G1 X120.247 Y116.9 E.00325
;WIDTH:0.546813
G1 X120.187 Y116.937 E.00295
;WIDTH:0.499652
G1 X120.127 Y116.975 E.0027
;WIDTH:0.45249
G1 X120.067 Y117.012 E.0024
;WIDTH:0.405329
G1 X120.007 Y117.049 E.00212
;WIDTH:0.407581
G1 X118.807 Y117.288 E.0371
;WIDTH:0.408615
G1 X118.755 Y117.299 E.00162
;WIDTH:0.426783
G1 X113.859 Y118.178 E.15877
;WIDTH:0.435242
G1 X113.465 Y118.259 E.01312
;WIDTH:0.480072
G1 X112.308 Y118.487 E.04286
;WIDTH:0.524902
G1 X111.15 Y118.715 E.0473
;WIDTH:0.569732
G1 X109.993 Y118.943 E.05166
G1 X109.867 Y118.996 E.00599
;WIDTH:0.519821
G1 X109.741 Y119.049 E.00542
;WIDTH:0.46991
G1 X109.615 Y119.102 E.00485
;WIDTH:0.419999
G1 X109.474 Y119.108 E.00442
;WIDTH:0.466235
G1 X108.411 Y118.953 E.03781
G1 X107.989 Y118.955 E.01485
;WIDTH:0.439645
G1 X106.945 Y118.941 E.03444
;WIDTH:0.420168
G1 X105.587 Y118.744 E.04304
G1 X106.936 Y118.565 E.04269
;WIDTH:0.425116
G1 X107.024 Y118.558 E.00281
;WIDTH:0.466235
G1 X108.417 Y118.532 E.04904
G1 X109.483 Y118.407 E.03778
;WIDTH:0.46991
G1 X109.622 Y118.413 E.00494
;WIDTH:0.519821
G1 X109.762 Y118.419 E.00556
;WIDTH:0.569732
G1 X109.901 Y118.425 E.00609
G1 X111.066 Y118.241 E.05166
;WIDTH:0.524902
G1 X112.231 Y118.057 E.04727
;WIDTH:0.480072
G1 X113.396 Y117.873 E.04287
;WIDTH:0.435242
G1 X113.792 Y117.8 E.01314
;WIDTH:0.426783
G1 X118.691 Y116.939 E.15876
;WIDTH:0.408615
G1 X118.743 Y116.93 E.0016
;WIDTH:0.407581
G1 X119.952 Y116.739 E.03711
;WIDTH:0.405329
G1 X120.021 Y116.753 E.00212
;WIDTH:0.45249
G1 X120.09 Y116.768 E.0024
;WIDTH:0.499652
G1 X120.159 Y116.782 E.00267
;WIDTH:0.546813
G1 X120.229 Y116.796 E.00299
;WIDTH:0.593975
G1 X120.298 Y116.811 E.00324
;WIDTH:0.641136
G1 X120.308 Y116.813 E.00051
M204 S1000
M106 S84.15
;LAYER_CHANGE
;Z:0.35
;HEIGHT:0.15
;BEFORE_LAYER_CHANGE
G92 E0.0
;0.35


;WIPE_START
G1 F8640
G1 X120.367 Y116.825 E-.0139
G1 X120.307 Y116.862 E-.01628
G1 X120.247 Y116.9 E-.0164
G1 X120.187 Y116.937 E-.01628
G1 X120.127 Y116.975 E-.0164
G1 X120.067 Y117.012 E-.01628
G1 X120.007 Y117.049 E-.01628
G1 X118.807 Y117.288 E-.28253
G1 X118.755 Y117.299 E-.01227
G1 X117.078 Y117.6 E-.39338
;WIPE_END
G1 Z.35 F720
;AFTER_LAYER_CHANGE
;0.35
; stop printing object canards.stl id:0 copy 0
G1 Z.75
G1 X119.919 Y113.974 F10800
G1 Z.35 F720
G1 E.8 F2100
;TYPE:Skirt/Brim
;WIDTH:0.42
G1 F3000
G1 X126.04 Y113.136 E.14942
G1 X136.876 Y113.18 E.26207
G1 X148.291 Y115.229 E.28048
G1 X149.563 Y115.857 E.03431
G1 X150.308 Y117.064 E.0343
G1 X150.297 Y118.483 E.03432
G1 X149.534 Y119.679 E.03431
G1 X148.389 Y120.26 E.03105
G1 X129.591 Y124.4 E.46552
G1 X129.033 Y124.46 E.01357
G1 X126.045 Y124.427 E.07227
G1 X103.697 Y121.275 E.54583
G1 X102.405 Y120.69 E.0343
G1 X101.62 Y119.508 E.03432
G1 X101.584 Y118.09 E.03431
G1 X102.307 Y116.869 E.03432
G1 X103.719 Y116.194 E.03785
G1 X119.86 Y113.982 E.39402
G1 X119.911 Y114.356 F10800
G1 F3000
G1 X126.09 Y113.509 E.15084
G1 X136.81 Y113.551 E.25926
G1 X148.224 Y115.601 E.28046
G1 X149.384 Y116.206 E.03164
G1 X149.991 Y117.365 E.03164
G1 X149.828 Y118.663 E.03164
G1 X148.955 Y119.636 E.03162
G1 X148.308 Y119.892 E.01683
G1 X129.51 Y124.031 E.46552
G1 X129.034 Y124.083 E.01158
M73 P1 R19
M73 Q2 S20
G1 X126.097 Y124.054 E.07103
G1 X103.752 Y120.901 E.54576
M73 P2 R19
G1 X102.573 Y120.335 E.03163
G1 X101.928 Y119.197 E.03164
G1 X102.047 Y117.894 E.03164
G1 X102.888 Y116.892 E.03164
G1 X103.77 Y116.568 E.02272
G1 X119.852 Y114.364 E.39258
;WIPE_START
G1 F8640
G1 X119.911 Y114.356 E-.01375
G1 X123.285 Y113.894 E-.78625
;WIPE_END
G1 Z.75 F720
; printing object canards.stl id:0 copy 0
G1 X109.031 Y118.753 F10800
G1 Z.35 F720
G1 E.8 F2100
M204 S800
;TYPE:Perimeter
;WIDTH:0.449999
G1 F2700
G1 X109.238 Y118.724 E.00545
G1 F1393.002
G1 X118.929 Y117.396 E.25487
G1 F1200
G1 X119.821 Y117.274 E.02346
G1 F900
G1 X122.285 Y116.936 E.0648
M204 S1000
;TYPE:Overhang perimeter
G1 X123.374 Y116.786 E.02864
G1 X125.182 Y116.539 E.04755
G1 X126.62 Y116.342 E.03782
G1 X128.072 Y116.343 E.03783
G1 X136.37 Y116.349 E.21621
G1 X136.879 Y116.44 E.01347
G1 X119.478 Y120.272 E.46426
G1 X115.763 Y119.732 E.09781
M73 Q2 S19
G1 X113.133 Y119.349 E.06925
G1 X112.044 Y119.191 E.02867
M204 S800
;TYPE:Perimeter
G1 X111.484 Y119.109 E.01475
G1 F1200
G1 X109.091 Y118.761 E.06301
M204 S1000
;WIPE_START
G1 F8640
G1 X109.031 Y118.753 E-.01398
G1 X109.238 Y118.724 E-.04826
G1 X112.404 Y118.29 E-.73776
;WIPE_END
G1 Z.75 F720
G1 X106.044 Y118.741 F10800
G1 Z.35 F720
G1 E.8 F2100
M204 S800
;TYPE:External perimeter
G1 F1500
G1 X106.665 Y118.655 E.01634
G1 F1393.002
G1 X124.003 Y116.279 E.45598
G1 F1200
G1 X124.895 Y116.156 E.02346
G1 F900
G1 X126.592 Y115.924 E.04463
G1 X126.88 Y115.924 E.0075
M204 S1000
;TYPE:Overhang perimeter
G1 X127.98 Y115.925 E.02866
G1 X136.407 Y115.931 E.21957
G1 X139.011 Y116.398 E.06893
G1 X119.494 Y120.696 E.52071
G1 X115.365 Y120.096 E.10871
G1 X111.978 Y119.603 E.08918
G1 X110.889 Y119.445 E.02867
M204 S800
;TYPE:External perimeter
G1 X110.329 Y119.364 E.01474
G1 F1200
G1 X109.439 Y119.234 E.02344
G1 F1500
G1 X106.664 Y118.831 E.07306
G1 X106.103 Y118.749 E.01477
M204 S1000
;WIPE_START
G1 F8640
G1 X106.044 Y118.741 E-.01375
G1 X106.665 Y118.655 E-.14476
G1 X109.417 Y118.278 E-.64149
;WIPE_END
G1 Z.75 F720
G1 X121.813 Y119.565 F10800
G1 Z.35 F720
G1 E.8 F2100
;TYPE:Bridge infill
;WIDTH:0.462684
G1 F1500
G1 X119.45 Y119.888 E.06403
G1 X117.909 Y119.664 E.04181
G1 X124.705 Y118.736 E.18414
G1 X129.898 Y117.592 E.14276
G1 X116.368 Y119.44 E.36661
G1 X114.827 Y119.216 E.04181
G1 X133.087 Y116.722 E.49477
G1 X129.922 Y116.72 E.08497
M73 Q3 S19
G1 X113.286 Y118.991 E.45077
G1 X111.745 Y118.767 E.04181
M73 P3 R19
G1 X128.127 Y116.531 E.44388
M106 S170.85
;LAYER_CHANGE
;Z:0.5
;HEIGHT:0.15
;BEFORE_LAYER_CHANGE
G92 E0.0
;0.5


;WIPE_START
G1 F8640
G1 X124.694 Y117 E-.8
;WIPE_END
G1 Z.5 F720
;AFTER_LAYER_CHANGE
;0.5
; stop printing object canards.stl id:0 copy 0
G1 Z.9
G1 X128.14 Y113.144 F10800
G1 Z.5 F720
G1 E.8 F2100
;TYPE:Skirt/Brim
;WIDTH:0.42
G1 F3000
G1 X136.876 Y113.18 E.21128
G1 X148.291 Y115.229 E.28048
G1 X149.563 Y115.857 E.03431
G1 X150.308 Y117.064 E.0343
G1 X150.297 Y118.483 E.03432
G1 X149.534 Y119.679 E.03431
G1 X148.389 Y120.26 E.03105
G1 X129.591 Y124.4 E.46552
G1 X129.033 Y124.46 E.01357
G1 X126.045 Y124.427 E.07227
G1 X103.697 Y121.275 E.54583
G1 X102.405 Y120.69 E.0343
G1 X101.62 Y119.508 E.03432
G1 X101.584 Y118.09 E.03431
G1 X102.307 Y116.869 E.03432
G1 X103.719 Y116.194 E.03785
G1 X126.04 Y113.136 E.54487
G1 X128.08 Y113.144 E.04934
G1 X128.079 Y113.517 F10800
G1 F3000
G1 X136.81 Y113.551 E.21116
G1 X148.224 Y115.601 E.28046
G1 X149.384 Y116.206 E.03164
G1 X149.991 Y117.365 E.03164
G1 X149.828 Y118.663 E.03164
G1 X148.955 Y119.636 E.03162
G1 X148.308 Y119.892 E.01683
G1 X129.51 Y124.031 E.46552
G1 X129.034 Y124.083 E.01158
G1 X126.097 Y124.054 E.07103
G1 X103.752 Y120.901 E.54576
G1 X102.573 Y120.335 E.03163
G1 X101.928 Y119.197 E.03164
G1 X102.047 Y117.894 E.03164
G1 X102.888 Y116.892 E.03164
G1 X103.77 Y116.568 E.02272
G1 X126.09 Y113.509 E.54485
G1 X128.019 Y113.517 E.04665
;WIPE_START
G1 F8640
G1 X128.079 Y113.517 E-.01385
G1 X131.484 Y113.53 E-.78615
;WIPE_END
G1 Z.9 F720
; printing object canards.stl id:0 copy 0
G1 X109.343 Y118.752 F10800
G1 Z.5 F720
G1 E.8 F2100
M204 S800
;TYPE:Perimeter
;WIDTH:0.449999
G1 F2700
G1 X126.789 Y116.36 E.45882
G1 X136.474 Y116.367 E.25235
G1 F1200
G1 X138.526 Y116.736 E.05432
G1 F900
G1 X139.038 Y116.828 E.01355
M204 S1000
;TYPE:Overhang perimeter
G1 X139.115 Y116.841 E.00203
G1 X140.121 Y117.022 E.02663
G1 X144.557 Y117.819 E.11743
G1 X128.97 Y121.251 E.41586
G1 X126.447 Y121.243 E.06574
G1 X123.77 Y120.853 E.07049
G1 X123.045 Y120.748 E.01909
G1 X121.956 Y120.589 E.02868
M204 S800
;TYPE:Perimeter
G1 X121.396 Y120.508 E.01474
G1 F1200
G1 X120.506 Y120.378 E.02344
G1 F2700
G1 X109.556 Y118.783 E.28832
G1 X109.402 Y118.76 E.00406
M204 S1000
;WIPE_START
G1 F8640
G1 X109.343 Y118.752 E-.01375
G1 X112.717 Y118.289 E-.78625
;WIPE_END
G1 Z.9 F720
G1 X106.358 Y118.739 F10800
G1 Z.5 F720
G1 E.8 F2100
M204 S800
;TYPE:External perimeter
G1 F1500
G1 X126.11 Y116.031 E.51947
G1 X126.761 Y115.942 E.01712
G1 X127.417 Y115.943 E.01709
G1 X135.836 Y115.949 E.21936
G1 X136.511 Y115.949 E.01759
G1 F1200
G1 X139.588 Y116.502 E.08146
G1 F900
G1 X140.1 Y116.594 E.01355
M204 S1000
;TYPE:Overhang perimeter
G1 X141.182 Y116.788 E.02864
G1 X146.689 Y117.777 E.14578
M73 Q4 S19
G1 X129.015 Y121.669 E.47154
M73 P4 R19
G1 X126.416 Y121.661 E.06772
G1 X123.342 Y121.213 E.08094
G1 X121.891 Y121.002 E.0382
G1 X120.802 Y120.843 E.02868
M204 S800
;TYPE:External perimeter
G1 X120.242 Y120.762 E.01474
G1 F1200
G1 X119.352 Y120.632 E.02344
G1 F1500
G1 X106.985 Y118.831 E.32563
G1 X106.418 Y118.748 E.01493
M204 S1000
;WIPE_START
G1 F8640
G1 X106.358 Y118.739 E-.01401
G1 X109.731 Y118.277 E-.78599
;WIPE_END
G1 Z.9 F720
G1 X112.029 Y118.763 F10800
G1 Z.5 F720
G1 E.8 F2100
;TYPE:Solid infill
G1 F4800
G1 X126.815 Y116.736 E.38886
G1 X130.566 Y116.739 E.09774
G1 X121.407 Y118.758 E.24437
G1 X120.955 Y118.984 E.01317
G1 X120.687 Y119.218 E.00927
G1 X120.408 Y119.589 E.0121
G1 X120.281 Y119.965 E.01034
G1 X112.236 Y118.793 E.21183
;WIPE_START
G1 F8640
G1 X115.665 Y119.293 E-.8
;WIPE_END
G1 Z.9 F720
G1 X115.014 Y118.776 F10800
G1 Z.5 F720
G1 E.8 F2100
G1 F4800
G1 X120.579 Y118.013 E.14636
;WIDTH:0.457179
G1 X122.086 Y117.793 E.04036
;WIDTH:0.423488
G1 X122.911 Y117.663 E.02038
;WIDTH:0.389797
G1 X123.737 Y117.532 E.01865
;WIDTH:0.404719
G1 X123.806 Y117.548 E.00165
;WIDTH:0.453334
G1 X123.875 Y117.563 E.00185
;WIDTH:0.501948
G1 X123.945 Y117.578 E.0021
;WIDTH:0.550562
G1 X124.014 Y117.593 E.00228
;WIDTH:0.599176
G1 X124.083 Y117.608 E.0025
;WIDTH:0.64779
G1 X124.152 Y117.623 E.00271
G1 X124.093 Y117.661 E.00269
;WIDTH:0.599176
G1 X124.033 Y117.699 E.00251
;WIDTH:0.550562
G1 X123.973 Y117.737 E.0023
;WIDTH:0.501948
G1 X123.913 Y117.775 E.00208
;WIDTH:0.453334
G1 X123.853 Y117.813 E.00187
;WIDTH:0.404719
G1 X123.793 Y117.851 E.00165
;WIDTH:0.389797
G1 X122.974 Y118.014 E.01862
;WIDTH:0.423488
G1 X122.154 Y118.178 E.02041
;WIDTH:0.457179
G1 X121.335 Y118.341 E.02213
;WIDTH:0.457981
G1 X121.185 Y118.394 E.00422
G1 X120.628 Y118.707 E.01697
;WIDTH:0.449999
G1 X120.323 Y119 E.01102
G1 X119.986 Y119.5 E.01571
G1 X115.221 Y118.806 E.12547
;WIPE_START
G1 F8640
G1 X118.65 Y119.305 E-.8
;WIPE_END
G1 Z.9 F720
G1 X118.086 Y118.789 F10800
G1 Z.5 F720
G1 E.8 F2100
;WIDTH:0.474395
G1 F4800
G1 X120.22 Y118.496 E.0594
G1 X120.116 Y118.591 E.00388
G1 X119.764 Y119.033 E.01558
G1 X118.292 Y118.819 E.04102
;WIPE_START
G1 F8640
G1 X119.764 Y119.033 E-.34346
G1 X120.116 Y118.591 E-.13047
G1 X120.22 Y118.496 E-.03252
G1 X118.96 Y118.669 E-.29355
;WIPE_END
G1 Z.9 F720
G1 X124.152 Y117.623 F10800
G1 Z.5 F720
G1 E.8 F2100
;WIDTH:0.64779
G1 F4800
G1 X124.69 Y117.527 E.02098
;WIDTH:0.603751
G1 X125.228 Y117.431 E.01948
;WIDTH:0.559713
G1 X125.766 Y117.335 E.01798
;WIDTH:0.515674
G1 X126.304 Y117.239 E.01648
;WIDTH:0.471635
G1 X126.842 Y117.143 E.01498
;WIPE_START
G1 F8640
G1 X126.304 Y117.239 E-.12619
G1 X125.766 Y117.335 E-.12619
G1 X125.228 Y117.431 E-.12619
G1 X124.69 Y117.527 E-.12619
G1 X124.152 Y117.623 E-.12619
;WIPE_END
G1 E-.16905 F2100
G1 Z.9 F720
G1 X127.989 Y121.06 F10800
G1 Z.5 F720
G1 E.8 F2100
;TYPE:Bridge infill
;WIDTH:0.493134
G1 F1500
G1 X142.583 Y117.846 E.42957
G1 X141.402 Y117.634 E.03449
G1 X126.717 Y120.868 E.43225
G1 X126.474 Y120.867 E.00699
G1 X125.332 Y120.701 E.03317
G1 X140.222 Y117.422 E.43828
G1 X139.041 Y117.21 E.03449
G1 X124.042 Y120.513 E.44149
G1 X122.752 Y120.325 E.03747
G1 X137.86 Y116.998 E.4447
G1 X136.68 Y116.786 E.03446
G1 X121.462 Y120.137 E.44793
G1 X120.695 Y120.025 E.02228
G1 X120.757 Y119.82 E.00616
G1 X134.737 Y116.742 E.41149
G1 X132.601 Y116.74 E.0614
G1 X120.909 Y119.315 E.34415
M106 S255
;LAYER_CHANGE
;Z:0.65
;HEIGHT:0.15
;BEFORE_LAYER_CHANGE
G92 E0.0
;0.65


;WIPE_START
G1 F8640
G1 X124.293 Y118.57 E-.8
;WIPE_END
G1 Z.65 F720
;AFTER_LAYER_CHANGE
;0.65
G1 Z1.05
G1 X109.659 Y118.75 F10800
G1 Z.65 F720
G1 E.8 F2100
M204 S800
;TYPE:Perimeter
;WIDTH:0.449999
G1 F2700
G1 X126.959 Y116.379 E.45498
G1 X136.578 Y116.386 E.25063
M73 Q5 S19
G1 X136.831 Y116.431 E.0067
G1 X145.318 Y117.955 E.22467
G1 F1200
M73 P5 R19
G1 X146.204 Y118.114 E.02345
G1 F900
G1 X146.716 Y118.206 E.01355
M204 S1000
;TYPE:Overhang perimeter
G1 X150.201 Y118.832 E.09226
