; generated by PrusaSlicer 2.9.2 on 2026-05-11 at 02:37:02 UTC


;
;
; 

; external perimeters extrusion width = 0.45mm
; perimeters extrusion width = 0.45mm
; infill extrusion width = 0.45mm
; solid infill extrusion width = 0.45mm
; top infill extrusion width = 0.40mm
; first layer extrusion width = 0.42mm

M73 P0 R67
M73 Q0 S69
M201 X1000 Y1000 Z200 E5000 ; sets maximum accelerations, mm/sec^2
M203 X200 Y200 Z12 E120 ; sets maximum feedrates, mm / sec
M204 S1250 T1250 ; sets acceleration (S) and retract acceleration (R), mm/sec^2
M205 X8.00 Y8.00 Z0.40 E4.50 ; sets the jerk limits, mm/sec
M205 S0 T0 ; sets the minimum extruding and travel feed rate, mm/sec

; printing object fins.stl id:0 copy 0
; stop printing object fins.stl id:0 copy 0

;TYPE:Custom
M862.3 P "MK3S" ; printer model check
M862.1 P0.4 ; nozzle diameter check
M115 U3.14.1 ; tell printer latest fw version
G90 ; use absolute coordinates
M83 ; extruder relative mode
M104 S215 ; set extruder temp
M140 S60 ; set bed temp
M190 S60 ; wait for bed temp
M109 S215 ; wait for extruder temp
G28 W ; home all without mesh bed level
G80 X82.7078 Y98.1013 W84.5226 H9.5493 ; mesh bed levelling

G1 Z0.2 F720
G1 Y-3 F1000 ; go outside print area
G92 E0
G1 X60 E9 F1000 ; intro line
G1 X100 E12.5 F1000 ; intro line

G92 E0
M221 S95

; Don't change E values below. Excessive value can damage the printer.
M907 E430 ; set extruder motor current
G21 ; set units to millimeters
G90 ; use absolute coordinates
M83 ; use relative distances for extrusion

M900 K0.05 ; Filament gcode LA 1.5
M900 K30 ; Filament gcode LA 1.0




M107
;LAYER_CHANGE
;Z:0.2
;HEIGHT:0.2
G1 E-.8 F2100
G1 Z.6 F720
G1 X83.718 Y101.106 F10800
G1 Z.2 F720
G1 E.8 F2100
M204 S800
;TYPE:Skirt/Brim
;WIDTH:0.42
G1 F1200
G1 X84.817 Y100.696 E.03678
G1 X112.792 Y98.298 E.88035
G1 X129.11 Y98.295 E.51164
G1 X165.068 Y100.693 E1.12994
G1 X166.288 Y101.166 E.04103
M73 P0 R66
G1 X167.02 Y102.25 E.04101
G1 X167.003 Y103.558 E.04101
G1 X166.243 Y104.622 E.041
G1 X165.068 Y105.06 E.03932
G1 X129.1 Y107.457 E1.13025
G1 X112.972 Y107.462 E.50568
G1 X84.817 Y105.057 E.886
G1 X83.607 Y104.561 E.041
G1 X82.896 Y103.463 E.04101
G1 X82.938 Y102.156 E.041
G1 X83.682 Y101.154 E.03913
M204 S1000
;WIPE_START
G1 F8640
G1 X83.718 Y101.106 E-.01385
G1 X84.817 Y100.696 E-.27085
G1 X87.041 Y100.505 E-.5153
;WIPE_END
G1 Z.6 F720
; printing object fins.stl id:0 copy 0
G1 X160.148 Y102.877 F10800
G1 Z.2 F720
G1 E.8 F2100
M204 S800
;TYPE:External perimeter
;WIDTH:0.633226
G1 F1200
G1 X160.763 Y102.877 E.03019
;WIDTH:0.591509
G1 X161.378 Y102.877 E.02805
;WIDTH:0.549791
G1 X161.993 Y102.877 E.02592
;WIDTH:0.508073
G1 X162.608 Y102.877 E.02379
;WIDTH:0.466356
G1 X163.223 Y102.877 E.02165
;WIDTH:0.424638
G1 X163.838 Y102.876 E.01952
M204 S1000
;WIPE_START
G1 F8640
G1 X163.223 Y102.877 E-.14201
G1 X162.608 Y102.877 E-.14201
G1 X161.993 Y102.877 E-.14201
G1 X161.378 Y102.877 E-.14201
G1 X160.763 Y102.877 E-.14201
G1 X160.373 Y102.877 E-.08995
;WIPE_END
G1 Z.6 F720
G1 X85.849 Y102.876 F10800
G1 Z.2 F720
G1 E.8 F2100
M204 S800
;WIDTH:0.431816
G1 F1200
G1 X86.415 Y102.876 E.0183
;WIDTH:0.480712
G1 X86.98 Y102.876 E.02057
;WIDTH:0.529608
G1 X87.546 Y102.876 E.02291
;WIDTH:0.578504
G1 X88.112 Y102.876 E.02521
;WIDTH:0.6274
G1 X88.677 Y102.876 E.02746
M204 S1000
;WIPE_START
G1 F8640
G1 X88.112 Y102.876 E-.13046
G1 X87.546 Y102.876 E-.13069
G1 X86.98 Y102.876 E-.13069
G1 X86.415 Y102.876 E-.13046
G1 X85.849 Y102.876 E-.13069
;WIPE_END
G1 E-.14701 F2100
G1 Z.6 F720
G1 X94.115 Y102.876 F10800
G1 Z.2 F720
G1 E.8 F2100
M204 S800
;TYPE:Perimeter
;WIDTH:0.448249
G1 F1200
G1 X94.378 Y102.876 E.00886
;WIDTH:0.49304
G1 X94.64 Y102.876 E.00981
;WIDTH:0.537831
G1 X94.902 Y102.876 E.01078
;WIDTH:0.582622
G1 X95.165 Y102.876 E.0118
;WIDTH:0.627412
G1 X95.427 Y102.876 E.01273
M204 S1000
G1 X95.76 Y103.016 F10800
M204 S800
;WIDTH:0.412328
G1 F1200
G1 X95.749 Y103.012 E.00036
;WIDTH:0.455345
G1 X95.685 Y102.985 E.00238
;WIDTH:0.498362
G1 X95.62 Y102.958 E.00267
;WIDTH:0.541379
G1 X95.556 Y102.93 E.0029
;WIDTH:0.584396
G1 X95.492 Y102.903 E.00313
;WIDTH:0.627412
G1 X95.427 Y102.876 E.00342
G1 X95.492 Y102.849 E.00342
;WIDTH:0.584396
G1 X95.556 Y102.822 E.00313
;WIDTH:0.541379
G1 X95.62 Y102.795 E.00288
;WIDTH:0.498362
G1 X95.685 Y102.768 E.00267
;WIDTH:0.455345
G1 X95.749 Y102.741 E.00238
;WIDTH:0.412328
G1 X95.813 Y102.714 E.00213
;WIDTH:0.414856
G1 X96.345 Y102.691 E.01647
;WIDTH:0.4604
G1 X96.876 Y102.668 E.01845
;WIDTH:0.505945
G1 X97.408 Y102.646 E.0205
;WIDTH:0.551489
G1 X97.94 Y102.623 E.02252
;WIDTH:0.597033
G1 X98.471 Y102.6 E.02449
G1 X98.569 Y102.57 E.00472
;WIDTH:0.552775
G1 X98.666 Y102.539 E.00432
;WIDTH:0.508516
G1 X98.763 Y102.509 E.00393
;WIDTH:0.464258
G1 X98.861 Y102.478 E.0036
;WIDTH:0.419999
G1 X113.013 Y101.265 E.44535
G1 X128.939 Y101.265 E.49935
G1 X147.211 Y102.483 E.57418
;WIDTH:0.464618
G1 X147.309 Y102.512 E.00358
;WIDTH:0.509236
G1 X147.407 Y102.541 E.00396
;WIDTH:0.553854
G1 X147.505 Y102.569 E.00433
;WIDTH:0.598472
G1 X147.604 Y102.598 E.00477
G1 X148.305 Y102.622 E.0324
;WIDTH:0.551705
G1 X149.007 Y102.645 E.02971
;WIDTH:0.504937
G1 X149.709 Y102.668 E.02698
;WIDTH:0.45817
G1 X150.411 Y102.692 E.02425
;WIDTH:0.411402
G1 X151.113 Y102.715 E.02152
;WIDTH:0.40939
G1 X151.178 Y102.742 E.00214
;WIDTH:0.454145
G1 X151.243 Y102.768 E.00239
;WIDTH:0.4989
G1 X151.308 Y102.795 E.00267
;WIDTH:0.543656
G1 X151.373 Y102.822 E.00293
;WIDTH:0.588411
G1 X151.438 Y102.849 E.00319
;WIDTH:0.633166
G1 X151.503 Y102.875 E.00344
G1 X151.438 Y102.902 E.00345
;WIDTH:0.588411
G1 X151.373 Y102.929 E.00319
;WIDTH:0.543656
G1 X151.308 Y102.956 E.00293
;WIDTH:0.4989
G1 X151.243 Y102.982 E.00265
;WIDTH:0.454145
G1 X151.178 Y103.009 E.00241
;WIDTH:0.40939
G1 X151.113 Y103.036 E.00214
;WIDTH:0.411402
G1 X150.411 Y103.059 E.02152
;WIDTH:0.45817
G1 X149.709 Y103.083 E.02425
;WIDTH:0.504937
G1 X149.007 Y103.106 E.02698
;WIDTH:0.551705
G1 X148.305 Y103.129 E.02971
;WIDTH:0.598472
G1 X147.604 Y103.153 E.0324
G1 X147.505 Y103.182 E.00477
;WIDTH:0.553854
G1 X147.407 Y103.21 E.00433
;WIDTH:0.509236
G1 X147.309 Y103.239 E.00396
;WIDTH:0.464618
G1 X147.211 Y103.268 E.00358
;WIDTH:0.419999
G1 X128.928 Y104.486 E.57452
G1 X113.006 Y104.486 E.49922
G1 X98.861 Y103.274 E.44513
;WIDTH:0.464258
G1 X98.763 Y103.244 E.00359
;WIDTH:0.508516
G1 X98.666 Y103.213 E.00394
;WIDTH:0.552775
G1 X98.569 Y103.183 E.0043
;WIDTH:0.597033
G1 X98.471 Y103.152 E.00474
G1 X97.94 Y103.13 E.02449
;WIDTH:0.551489
G1 X97.408 Y103.107 E.02252
;WIDTH:0.505945
G1 X96.876 Y103.084 E.0205
;WIDTH:0.4604
G1 X96.345 Y103.062 E.01845
;WIDTH:0.414856
G1 X95.815 Y103.039 E.01641
M204 S1000
;WIPE_START
G1 F8640
G1 X95.76 Y103.016 E-.01377
G1 X95.749 Y103.012 E-.0027
G1 X95.685 Y102.985 E-.01604
G1 X95.62 Y102.958 E-.01625
G1 X95.556 Y102.93 E-.01613
G1 X95.492 Y102.903 E-.01604
G1 X95.427 Y102.876 E-.01625
G1 X95.492 Y102.849 E-.01625
G1 X95.556 Y102.822 E-.01604
G1 X95.62 Y102.795 E-.01604
G1 X95.685 Y102.768 E-.01625
G1 X95.749 Y102.741 E-.01604
G1 X95.813 Y102.714 E-.01604
G1 X96.345 Y102.691 E-.12296
G1 X96.876 Y102.668 E-.12272
G1 X97.408 Y102.646 E-.12295
G1 X97.94 Y102.623 E-.12296
G1 X98.436 Y102.602 E-.11457
;WIPE_END
G1 Z.6 F720
G1 X151.503 Y102.875 F10800
G1 Z.2 F720
G1 E.8 F2100
M204 S800
;WIDTH:0.633166
G1 F1200
G1 X151.867 Y102.875 E.01786
;WIDTH:0.584778
G1 X152.231 Y102.875 E.0164
;WIDTH:0.53639
G1 X152.594 Y102.875 E.01489
;WIDTH:0.488001
G1 X152.958 Y102.875 E.01347
;WIDTH:0.439613
G1 X153.322 Y102.875 E.01201
M204 S1000
;WIPE_START
G1 F8640
G1 X152.958 Y102.875 E-.08405
G1 X152.594 Y102.875 E-.08405
G1 X152.231 Y102.875 E-.08382
G1 X151.867 Y102.875 E-.08405
G1 X151.503 Y102.875 E-.08405
;WIPE_END
G1 E-.37998 F2100
G1 Z.6 F720
G1 X88.758 Y102.91 F10800
G1 Z.2 F720
G1 E.8 F2100
M204 S800
;TYPE:External perimeter
;WIDTH:0.584387
G1 F1200
G1 X88.742 Y102.903 E.00079
;WIDTH:0.6274
G1 X88.677 Y102.876 E.00342
G1 X88.742 Y102.849 E.00342
;WIDTH:0.584387
G1 X88.806 Y102.822 E.00313
;WIDTH:0.541374
G1 X88.87 Y102.795 E.00288
;WIDTH:0.49836
G1 X88.935 Y102.768 E.00267
;WIDTH:0.455347
G1 X88.999 Y102.741 E.00238
;WIDTH:0.412334
G1 X89.064 Y102.714 E.00216
;WIDTH:0.395493
G1 X89.491 Y102.7 E.01252
;WIDTH:0.421665
G1 X89.919 Y102.687 E.01349
;WIDTH:0.433533
G1 X91.891 Y102.681 E.06405
;WIDTH:0.434369
G1 X91.903 Y102.681 E.00039
;WIDTH:0.466047
G1 X92.399 Y102.665 E.01746
;WIDTH:0.497724
G1 X92.895 Y102.65 E.01877
;WIDTH:0.531923
G1 X93.294 Y102.633 E.01624
;WIDTH:0.566122
G1 X93.693 Y102.616 E.01737
G1 X93.823 Y102.58 E.00587
;WIDTH:0.517415
G1 X93.954 Y102.544 E.00536
;WIDTH:0.468707
G1 X94.084 Y102.509 E.00477
;WIDTH:0.419999
G1 X112.996 Y100.888 E.59515
G1 X128.951 Y100.888 E.50026
G1 X153.346 Y102.514 E.76658
;WIDTH:0.469186
G1 X153.478 Y102.547 E.00482
;WIDTH:0.518373
G1 X153.609 Y102.58 E.00534
;WIDTH:0.56756
G1 X153.74 Y102.614 E.0059
G1 X154.39 Y102.635 E.02837
;WIDTH:0.524274
G1 X155.039 Y102.657 E.02599
;WIDTH:0.480987
G1 X155.379 Y102.669 E.01239
;WIDTH:0.460918
G1 X156.386 Y102.687 E.03501
;WIDTH:0.426244
G1 X158.878 Y102.686 E.07943
;WIDTH:0.418598
G1 X159.008 Y102.692 E.00407
;WIDTH:0.414406
G1 X159.758 Y102.717 E.02318
;WIDTH:0.409361
G1 X159.823 Y102.744 E.00214
;WIDTH:0.454134
G1 X159.888 Y102.77 E.00239
;WIDTH:0.498907
G1 X159.953 Y102.797 E.00267
;WIDTH:0.54368
G1 X160.018 Y102.824 E.00293
;WIDTH:0.588453
G1 X160.083 Y102.85 E.00318
;WIDTH:0.633226
G1 X160.148 Y102.877 E.00345
G1 X160.083 Y102.904 E.00345
;WIDTH:0.588453
G1 X160.018 Y102.931 E.00319
;WIDTH:0.54368
G1 X159.953 Y102.957 E.00291
;WIDTH:0.498907
G1 X159.888 Y102.984 E.00267
;WIDTH:0.454134
G1 X159.823 Y103.011 E.00241
;WIDTH:0.409361
G1 X159.758 Y103.038 E.00214
;WIDTH:0.391593
G1 X159.319 Y103.05 E.01273
;WIDTH:0.418598
G1 X158.879 Y103.062 E.01375
;WIDTH:0.426244
G1 X156.387 Y103.07 E.07943
;WIDTH:0.433523
G1 X156.031 Y103.068 E.01156
;WIDTH:0.480987
G1 X155.039 Y103.094 E.03615
;WIDTH:0.524274
G1 X154.39 Y103.116 E.02599
;WIDTH:0.56756
G1 X153.74 Y103.137 E.02837
G1 X153.609 Y103.171 E.0059
;WIDTH:0.518373
G1 X153.478 Y103.204 E.00534
;WIDTH:0.469186
G1 X153.346 Y103.237 E.00482
;WIDTH:0.419999
G1 X128.94 Y104.863 E.76693
G1 X112.99 Y104.863 E.5001
G1 X94.084 Y103.244 E.59495
;WIDTH:0.468707
G1 X93.954 Y103.208 E.00478
;WIDTH:0.517415
G1 X93.823 Y103.172 E.00536
;WIDTH:0.566122
G1 X93.693 Y103.137 E.00586
G1 X93.291 Y103.12 E.0175
;WIDTH:0.531541
G1 X92.889 Y103.103 E.01635
;WIDTH:0.496959
G1 X92.395 Y103.087 E.01866
;WIDTH:0.465613
G1 X91.902 Y103.072 E.01734
;WIDTH:0.434266
G1 X89.923 Y103.066 E.0644
;WIDTH:0.421637
G1 X89.489 Y103.052 E.01367
;WIDTH:0.395479
G1 X89.064 Y103.039 E.01246
;WIDTH:0.412334
G1 X88.999 Y103.012 E.00216
;WIDTH:0.455347
G1 X88.935 Y102.985 E.00238
;WIDTH:0.49836
G1 X88.87 Y102.958 E.00267
;WIDTH:0.541374
G1 X88.813 Y102.933 E.00258
M204 S1000
;WIPE_START
G1 F8640
G1 X88.758 Y102.91 E-.01377
G1 X88.742 Y102.903 E-.00403
G1 X88.677 Y102.876 E-.01625
G1 X88.742 Y102.849 E-.01625
G1 X88.806 Y102.822 E-.01604
G1 X88.87 Y102.795 E-.01604
G1 X88.935 Y102.768 E-.01625
G1 X88.999 Y102.741 E-.01604
G1 X89.064 Y102.714 E-.01625
G1 X89.491 Y102.7 E-.09865
G1 X89.919 Y102.687 E-.09887
G1 X91.891 Y102.681 E-.45534
G1 X91.903 Y102.681 E-.00277
G1 X91.961 Y102.679 E-.01345
;WIPE_END
G1 Z.6 F720
G1 X147.093 Y103.106 F10800
G1 Z.2 F720
G1 E.8 F2100
M204 S800
;TYPE:Solid infill
;WIDTH:0.42145
G1 F1200
G1 X146.781 Y102.794 E.01389
G1 X146.208 Y102.756 E.01807
G1 X146.432 Y102.98 E.00997
G1 X145.93 Y103.013 E.01583
G1 X145.635 Y102.718 E.01313
G1 X145.061 Y102.68 E.01811
G1 X145.428 Y103.047 E.01634
G1 X144.926 Y103.08 E.01583
G1 X144.488 Y102.642 E.0195
G1 X143.914 Y102.604 E.01811
G1 X144.424 Y103.114 E.0227
G1 X143.922 Y103.147 E.01583
G1 X143.341 Y102.566 E.02586
G1 X142.768 Y102.528 E.01807
G1 X143.42 Y103.181 E.02904
G1 X142.919 Y103.214 E.0158
G1 X142.194 Y102.49 E.03225
G1 X141.621 Y102.452 E.01807
G1 X142.417 Y103.248 E.03543
G1 X141.915 Y103.281 E.01583
G1 X141.047 Y102.414 E.03861
G1 X140.474 Y102.375 E.01808
G1 X141.413 Y103.314 E.0418
G1 X140.911 Y103.348 E.01584
G1 X139.901 Y102.337 E.04498
G1 X139.327 Y102.299 E.01811
G1 X140.409 Y103.381 E.04816
G1 X139.907 Y103.415 E.01584
G1 X138.754 Y102.261 E.05134
G1 X138.18 Y102.223 E.01811
G1 X139.405 Y103.448 E.05453
G1 X138.904 Y103.482 E.01581
G1 X137.607 Y102.185 E.05773
G1 X137.034 Y102.147 E.01807
G1 X138.402 Y103.515 E.06089
G1 X137.9 Y103.549 E.01584
G1 X136.46 Y102.109 E.0641
G1 X135.887 Y102.071 E.01807
G1 X137.398 Y103.582 E.06726
G1 X136.896 Y103.615 E.01583
G1 X135.313 Y102.033 E.07044
G1 X134.74 Y101.995 E.01807
G1 X136.394 Y103.649 E.07362
G1 X135.892 Y103.682 E.01583
G1 X134.167 Y101.957 E.07678
G1 X133.593 Y101.919 E.01811
G1 X135.39 Y103.716 E.07999
G1 X134.888 Y103.749 E.01583
G1 X133.02 Y101.88 E.08317
G1 X132.446 Y101.842 E.01811
G1 X134.387 Y103.783 E.0864
G1 X133.885 Y103.816 E.01583
G1 X131.873 Y101.804 E.08956
G1 X131.3 Y101.766 E.01807
G1 X133.383 Y103.849 E.09272
G1 X132.881 Y103.883 E.01584
G1 X130.726 Y101.728 E.09592
G1 X130.153 Y101.69 E.01807
G1 X132.379 Y103.916 E.09908
G1 X131.877 Y103.95 E.01584
G1 X129.579 Y101.652 E.10229
G1 X129.006 Y101.614 E.01807
G1 X131.375 Y103.983 E.10545
G1 X130.873 Y104.017 E.01584
G1 X128.462 Y101.605 E.10734
G1 X127.926 Y101.605 E.01687
G1 X130.372 Y104.05 E.10885
G1 X129.87 Y104.084 E.01584
G1 X127.391 Y101.605 E.11035
G1 X126.856 Y101.605 E.01684
G1 X129.368 Y104.117 E.11181
G1 X128.862 Y104.147 E.01595
G1 X126.32 Y101.605 E.11315
G1 X125.785 Y101.605 E.01684
G1 X128.327 Y104.147 E.11315
G1 X127.792 Y104.147 E.01684
G1 X125.25 Y101.605 E.11315
G1 X124.714 Y101.605 E.01687
G1 X127.257 Y104.147 E.11317
G1 X126.721 Y104.147 E.01687
G1 X124.179 Y101.605 E.11315
G1 X123.644 Y101.605 E.01684
G1 X126.186 Y104.147 E.11315
G1 X125.651 Y104.147 E.01684
G1 X123.108 Y101.605 E.11317
G1 X122.573 Y101.605 E.01684
M73 P1 R66
M73 Q1 S69
G1 X125.115 Y104.147 E.11315
G1 X124.58 Y104.147 E.01684
G1 X122.038 Y101.605 E.11315
G1 X121.502 Y101.605 E.01687
M73 Q1 S68
G1 X124.045 Y104.147 E.11317
G1 X123.509 Y104.147 E.01687
G1 X120.967 Y101.605 E.11315
G1 X120.432 Y101.605 E.01684
G1 X122.974 Y104.147 E.11315
G1 X122.439 Y104.147 E.01684
G1 X119.896 Y101.605 E.11317
G1 X119.361 Y101.605 E.01684
G1 X121.903 Y104.147 E.11315
G1 X121.368 Y104.147 E.01684
G1 X118.826 Y101.605 E.11315
G1 X118.29 Y101.605 E.01687
G1 X120.833 Y104.147 E.11317
G1 X120.297 Y104.147 E.01687
G1 X117.755 Y101.605 E.11315
G1 X117.22 Y101.605 E.01684
G1 X119.762 Y104.147 E.11315
G1 X119.227 Y104.147 E.01684
G1 X116.684 Y101.605 E.11317
G1 X116.149 Y101.605 E.01684
G1 X118.691 Y104.147 E.11315
G1 X118.156 Y104.147 E.01684
G1 X115.614 Y101.605 E.11315
G1 X115.078 Y101.605 E.01687
G1 X117.621 Y104.147 E.11317
G1 X117.085 Y104.147 E.01687
G1 X114.543 Y101.605 E.11315
G1 X114.008 Y101.605 E.01684
G1 X116.55 Y104.147 E.11315
G1 X116.015 Y104.147 E.01684
G1 X113.473 Y101.605 E.11315
G1 X113.027 Y101.605 E.01404
G1 X112.944 Y101.612 E.00262
G1 X115.479 Y104.147 E.11284
G1 X114.944 Y104.147 E.01684
G1 X112.451 Y101.654 E.11097
G1 X111.958 Y101.696 E.01557
G1 X114.409 Y104.147 E.1091
G1 X113.873 Y104.147 E.01687
G1 X111.465 Y101.739 E.10719
G1 X110.972 Y101.781 E.01557
G1 X113.338 Y104.147 E.10532
G1 X112.782 Y104.127 E.01751
G1 X110.479 Y101.823 E.10253
G1 X109.986 Y101.865 E.01557
G1 X112.197 Y104.076 E.09842
G1 X111.611 Y104.026 E.01851
G1 X109.493 Y101.908 E.09428
G1 X109 Y101.95 E.01557
G1 X111.026 Y103.976 E.09018
G1 X110.44 Y103.926 E.01851
G1 X108.507 Y101.992 E.08606
G1 X108.014 Y102.034 E.01557
G1 X109.855 Y103.876 E.08197
G1 X109.27 Y103.826 E.01848
G1 X107.52 Y102.077 E.07787
G1 X107.027 Y102.119 E.01557
G1 X108.684 Y103.775 E.07373
G1 X108.099 Y103.725 E.01848
G1 X106.534 Y102.161 E.06964
G1 X106.041 Y102.203 E.01557
G1 X107.513 Y103.675 E.06552
G1 X106.928 Y103.625 E.01848
G1 X105.548 Y102.246 E.0614
G1 X105.055 Y102.288 E.01557
G1 X106.342 Y103.575 E.05729
G1 X105.757 Y103.525 E.01848
G1 X104.562 Y102.33 E.05319
G1 X104.069 Y102.372 E.01557
G1 X105.171 Y103.475 E.04907
G1 X104.586 Y103.424 E.01848
