; generated by PrusaSlicer 2.9.2 on 2026-05-11 at 04:34:13 UTC


;
;
; 

; external perimeters extrusion width = 0.45mm
; perimeters extrusion width = 0.45mm
; infill extrusion width = 0.45mm
; solid infill extrusion width = 0.45mm
; top infill extrusion width = 0.40mm
; first layer extrusion width = 0.42mm

M73 P0 R131
M73 Q0 S133
M201 X1000 Y1000 Z200 E5000 ; sets maximum accelerations, mm/sec^2
M203 X200 Y200 Z12 E120 ; sets maximum feedrates, mm / sec
M204 S1250 T1250 ; sets acceleration (S) and retract acceleration (R), mm/sec^2
M205 X8.00 Y8.00 Z0.40 E4.50 ; sets the jerk limits, mm/sec
M205 S0 T0 ; sets the minimum extruding and travel feed rate, mm/sec

; printing object fins.stl id:0 copy 0
; stop printing object fins.stl id:0 copy 0

;TYPE:Custom
M862.3 P "MK3S" ; printer model check
M862.1 P0.4 ; nozzle diameter check
M115 U3.14.1 ; tell printer latest fw version
G90 ; use absolute coordinates
M83 ; extruder relative mode
M104 S215 ; set extruder temp
M140 S60 ; set bed temp
M190 S60 ; wait for bed temp
M109 S215 ; wait for extruder temp
G28 W ; home all without mesh bed level
G80 X65.5961 Y97.49 W127.439 H15.1588 ; mesh bed levelling

G1 Z0.2 F720
G1 Y-3 F1000 ; go outside print area
G92 E0
G1 X60 E9 F1000 ; intro line
G1 X100 E12.5 F1000 ; intro line
M73 Q0 S132

G92 E0
M221 S95

; Don't change E values below. Excessive value can damage the printer.
M907 E430 ; set extruder motor current
G21 ; set units to millimeters
G90 ; use absolute coordinates
M83 ; use relative distances for extrusion

M900 K0.05 ; Filament gcode LA 1.5
M900 K30 ; Filament gcode LA 1.0




M107
;LAYER_CHANGE
;Z:0.2
;HEIGHT:0.2
G1 E-.8 F2100
G1 Z.6 F720
G1 X66.653 Y103.256 F10800
G1 Z.2 F720
G1 E.8 F2100
M204 S800
;TYPE:Skirt/Brim
;WIDTH:0.42
G1 F1200
G1 X67.614 Y102.897 E.03217
G1 X110.622 Y97.694 E1.35832
G1 X135.667 Y97.688 E.78527
G1 X190.949 Y102.891 E1.74099
G1 X192.155 Y103.397 E.04101
G1 X192.857 Y104.501 E.04102
G1 X192.805 Y105.808 E.04101
G1 X192.016 Y106.851 E.04101
G1 X190.949 Y107.249 E.03571
G1 X135.65 Y112.451 E1.74152
G1 X110.875 Y112.46 E.7768
G1 X67.614 Y107.243 E1.36625
G1 X66.421 Y106.705 E.04103
G1 X65.749 Y105.583 E.04101
G1 X65.836 Y104.278 E.04101
G1 X66.615 Y103.303 E.03913
M204 S1000
;WIPE_START
G1 F8640
G1 X66.653 Y103.256 E-.01396
G1 X67.614 Y102.897 E-.23688
G1 X69.975 Y102.611 E-.54916
;WIPE_END
G1 Z.6 F720
; printing object fins.stl id:0 copy 0
G1 X74.426 Y105.07 F10800
G1 Z.2 F720
G1 E.8 F2100
M204 S800
;TYPE:Perimeter
;WIDTH:0.419999
G1 F1200
G1 X110.933 Y100.654 E1.15299
G1 X135.425 Y100.654 E.76793
G1 X182.348 Y105.069 E1.47773
G1 X135.408 Y109.485 E1.47827
G1 X110.923 Y109.485 E.76771
G1 X74.486 Y105.077 E1.15078
M204 S1000
;WIPE_START
G1 F8640
G1 X74.426 Y105.07 E-.01395
G1 X77.806 Y104.661 E-.78605
;WIPE_END
G1 Z.6 F720
G1 X69.468 Y105.07 F10800
G1 Z.2 F720
G1 E.8 F2100
M204 S800
;TYPE:External perimeter
;WIDTH:0.382142
G1 F1200
G1 X70.859 Y104.902 E.03952
;WIDTH:0.423399
G1 X71.357 Y104.88 E.01577
;WIDTH:0.444177
G1 X72.844 Y104.869 E.04961
;WIDTH:0.445377
G1 X73.857 Y104.759 E.0341
;WIDTH:0.419999
G1 X110.91 Y100.277 E1.17024
G1 X135.201 Y100.277 E.76163
G1 X135.667 Y100.298 E.01463
;WIDTH:0.46975
G1 X159.481 Y102.564 E.849
;WIDTH:0.519501
G1 X183.5 Y104.841 E.95609
;WIDTH:0.503689
G1 X184.004 Y104.858 E.01932
;WIDTH:0.470192
G1 X184.509 Y104.875 E.01795
;WIDTH:0.436694
G1 X186.287 Y104.881 E.05822
;WIDTH:0.421765
G1 X186.783 Y104.895 E.01563
;WIDTH:0.393963
G1 X188.629 Y105.071 E.05413
G1 X186.782 Y105.245 E.05415
;WIDTH:0.421765
G1 X186.292 Y105.26 E.01544
;WIDTH:0.436694
G1 X184.509 Y105.269 E.05838
;WIDTH:0.44576
G1 X184.291 Y105.267 E.0073
;WIDTH:0.482631
G1 X183.793 Y105.288 E.01822
;WIDTH:0.519501
G1 X183.295 Y105.309 E.01975
G1 X159.481 Y107.574 E.94796
;WIDTH:0.46975
G1 X135.667 Y109.839 E.849
;WIDTH:0.419999
G1 X135.426 Y109.862 E.00759
G1 X110.9 Y109.862 E.76899
G1 X73.852 Y105.38 E1.17008
M73 P0 R130
;WIDTH:0.444194
G1 X72.845 Y105.271 E.0338
G1 X71.357 Y105.26 E.04965
;WIDTH:0.423399
G1 X70.862 Y105.239 E.01567
;WIDTH:0.382142
G1 X69.527 Y105.077 E.03793
M204 S1000
;WIPE_START
G1 F8640
G1 X69.468 Y105.07 E-.01372
G1 X70.859 Y104.902 E-.32352
G1 X71.357 Y104.88 E-.1151
G1 X72.844 Y104.869 E-.34336
G1 X72.863 Y104.867 E-.0043
;WIPE_END
G1 Z.6 F720
G1 X178.778 Y105.235 F10800
G1 Z.2 F720
G1 E.8 F2100
M204 S800
;TYPE:Solid infill
;WIDTH:0.421377
G1 F1200
G1 X178.601 Y105.058 E.00788
G1 X178.01 Y105.002 E.01868
G1 X178.133 Y105.125 E.00547
G1 X177.644 Y105.171 E.01546
G1 X177.419 Y104.947 E.00999
G1 X176.829 Y104.891 E.01865
G1 X177.155 Y105.217 E.01451
G1 X176.665 Y105.263 E.01549
G1 X176.238 Y104.835 E.01903
G1 X175.647 Y104.78 E.01868
G1 X176.176 Y105.309 E.02354
G1 X175.687 Y105.355 E.01546
G1 X175.056 Y104.724 E.02808
G1 X174.465 Y104.669 E.01868
G1 X175.198 Y105.401 E.0326
G1 X174.709 Y105.447 E.01546
G1 X173.874 Y104.613 E.03714
G1 X173.284 Y104.557 E.01865
G1 X174.219 Y105.493 E.04163
G1 X173.73 Y105.539 E.01546
G1 X172.693 Y104.502 E.04615
G1 X172.102 Y104.446 E.01868
G1 X173.241 Y105.585 E.05069
G1 X172.752 Y105.631 E.01546
G1 X171.511 Y104.391 E.05521
G1 X170.92 Y104.335 E.01868
G1 X172.263 Y105.677 E.05975
G1 X171.773 Y105.723 E.01549
G1 X170.33 Y104.279 E.06424
G1 X169.739 Y104.224 E.01868
G1 X171.284 Y105.769 E.06876
G1 X170.795 Y105.815 E.01546
G1 X169.148 Y104.168 E.0733
G1 X168.557 Y104.113 E.01868
G1 X170.306 Y105.861 E.07781
G1 X169.817 Y105.907 E.01546
G1 X167.966 Y104.057 E.08235
G1 X167.376 Y104.001 E.01865
G1 X169.327 Y105.953 E.08685
G1 X168.838 Y105.999 E.01546
G1 X166.785 Y103.946 E.09137
G1 X166.194 Y103.89 E.01868
G1 X168.349 Y106.045 E.09591
G1 X167.86 Y106.091 E.01546
G1 X165.603 Y103.835 E.10042
G1 X165.012 Y103.779 E.01868
G1 X167.371 Y106.137 E.10496
G1 X166.881 Y106.183 E.01549
G1 X164.421 Y103.723 E.10948
G1 X163.831 Y103.668 E.01865
G1 X166.392 Y106.229 E.11397
G1 X165.903 Y106.275 E.01546
G1 X163.24 Y103.612 E.11851
G1 X162.649 Y103.557 E.01868
G1 X165.414 Y106.321 E.12303
G1 X164.925 Y106.367 E.01546
G1 X162.058 Y103.501 E.12757
G1 X161.467 Y103.446 E.01868
G1 X164.435 Y106.413 E.13206
G1 X163.946 Y106.46 E.01546
G1 X160.877 Y103.39 E.1366
G1 X160.286 Y103.334 E.01868
G1 X163.457 Y106.506 E.14114
G1 X162.968 Y106.552 E.01546
G1 X159.695 Y103.279 E.14566
G1 X159.104 Y103.223 E.01868
G1 X162.479 Y106.598 E.1502
G1 X161.989 Y106.644 E.01549
G1 X158.513 Y103.168 E.15469
G1 X157.922 Y103.112 E.01868
G1 X161.5 Y106.69 E.15923
G1 X161.011 Y106.736 E.01546
G1 X157.332 Y103.056 E.16375
G1 X156.741 Y103.001 E.01868
G1 X160.522 Y106.782 E.16827
G1 X160.032 Y106.828 E.01549
G1 X156.15 Y102.945 E.17279
G1 X155.559 Y102.89 E.01868
G1 X159.543 Y106.874 E.1773
G1 X159.054 Y106.92 E.01546
G1 X154.968 Y102.834 E.18184
G1 X154.378 Y102.778 E.01865
G1 X158.565 Y106.966 E.18636
G1 X158.076 Y107.012 E.01546
G1 X153.787 Y102.723 E.19088
G1 X153.196 Y102.667 E.01868
G1 X157.586 Y107.058 E.19539
G1 X157.097 Y107.104 E.01546
G1 X152.605 Y102.612 E.19991
G1 X152.014 Y102.556 E.01868
G1 X156.608 Y107.15 E.20445
G1 X156.119 Y107.196 E.01546
G1 X151.424 Y102.5 E.20897
G1 X150.833 Y102.445 E.01868
G1 X155.63 Y107.242 E.21348
G1 X155.14 Y107.288 E.01549
G1 X150.242 Y102.389 E.218
G1 X149.651 Y102.334 E.01868
G1 X154.651 Y107.334 E.22252
G1 X154.162 Y107.38 E.01546
G1 X149.06 Y102.278 E.22706
G1 X148.469 Y102.222 E.01868
G1 X153.673 Y107.426 E.2316
G1 X153.184 Y107.472 E.01546
G1 X147.879 Y102.167 E.23609
G1 X147.288 Y102.111 E.01868
G1 X152.694 Y107.518 E.24061
G1 X152.205 Y107.564 E.01546
G1 X146.697 Y102.056 E.24513
G1 X146.106 Y102 E.01868
G1 X151.716 Y107.61 E.24967
G1 X151.227 Y107.656 E.01546
G1 X145.515 Y101.944 E.2542
G1 X144.925 Y101.889 E.01865
G1 X150.738 Y107.702 E.2587
G1 X150.248 Y107.748 E.01549
G1 X144.334 Y101.833 E.26322
G1 X143.743 Y101.778 E.01868
G1 X149.759 Y107.794 E.26773
G1 X149.27 Y107.84 E.01546
G1 X143.152 Y101.722 E.27227
G1 X142.561 Y101.667 E.01868
M73 Q0 S131
G1 X148.781 Y107.886 E.27679
G1 X148.292 Y107.932 E.01546
G1 X141.971 Y101.611 E.28131
G1 X141.38 Y101.555 E.01868
G1 X147.802 Y107.978 E.28582
G1 X147.313 Y108.024 E.01546
G1 X140.789 Y101.5 E.29034
G1 X140.198 Y101.444 E.01868
G1 X146.824 Y108.07 E.29488
G1 X146.335 Y108.116 E.01546
G1 X139.607 Y101.389 E.2994
G1 X139.016 Y101.333 E.01868
G1 X145.846 Y108.162 E.30394
G1 X145.356 Y108.208 E.01549
G1 X138.426 Y101.277 E.30843
G1 X137.835 Y101.222 E.01868
G1 X144.867 Y108.254 E.31295
G1 X144.378 Y108.3 E.01546
G1 X137.244 Y101.166 E.31749
G1 X136.653 Y101.111 E.01868
G1 X143.889 Y108.346 E.32201
G1 X143.4 Y108.392 E.01546
G1 X136.062 Y101.055 E.32655
G1 X135.472 Y100.999 E.01865
G1 X142.91 Y108.438 E.33104
G1 X142.421 Y108.484 E.01546
G1 X134.931 Y100.994 E.33333
G1 X134.395 Y100.994 E.01687
G1 X141.932 Y108.53 E.3354
G1 X141.443 Y108.576 E.01546
G1 X133.86 Y100.994 E.33745
G1 X133.325 Y100.994 E.01684
G1 X140.954 Y108.622 E.3395
G1 X140.464 Y108.668 E.01549
G1 X132.79 Y100.994 E.34152
G1 X132.254 Y100.994 E.01687
G1 X139.975 Y108.714 E.34359
G1 X139.486 Y108.76 E.01546
G1 X131.719 Y100.994 E.34564
G1 X131.184 Y100.994 E.01684
G1 X138.997 Y108.806 E.34768
G1 X138.508 Y108.852 E.01546
G1 X130.649 Y100.994 E.34973
G1 X130.114 Y100.994 E.01684
G1 X138.018 Y108.898 E.35176
G1 X137.529 Y108.944 E.01546
G1 X129.578 Y100.994 E.35383
G1 X129.043 Y100.994 E.01684
G1 X137.04 Y108.99 E.35587
G1 X136.551 Y109.036 E.01546
G1 X128.508 Y100.994 E.35792
G1 X127.973 Y100.994 E.01684
G1 X136.062 Y109.082 E.35997
G1 X135.572 Y109.128 E.01549
G1 X127.437 Y100.994 E.36201
G1 X126.902 Y100.994 E.01684
G1 X135.054 Y109.145 E.36277
G1 X134.519 Y109.145 E.01684
G1 X126.367 Y100.994 E.36277
G1 X125.832 Y100.994 E.01684
G1 X133.984 Y109.145 E.36277
G1 X133.448 Y109.145 E.01687
G1 X125.297 Y100.994 E.36275
G1 X124.761 Y100.994 E.01687
G1 X132.913 Y109.145 E.36277
G1 X132.378 Y109.145 E.01684
M73 P1 R130
M73 Q1 S131
G1 X124.226 Y100.994 E.36277
G1 X123.691 Y100.994 E.01684
G1 X131.843 Y109.145 E.36277
G1 X131.307 Y109.145 E.01687
G1 X123.156 Y100.994 E.36275
G1 X122.62 Y100.994 E.01687
G1 X130.772 Y109.145 E.36277
G1 X130.237 Y109.145 E.01684
G1 X122.085 Y100.994 E.36277
G1 X121.55 Y100.994 E.01684
G1 X129.702 Y109.145 E.36277
G1 X129.167 Y109.145 E.01684
G1 X121.015 Y100.994 E.36277
G1 X120.48 Y100.994 E.01684
G1 X128.631 Y109.145 E.36275
G1 X128.096 Y109.145 E.01684
G1 X119.944 Y100.994 E.36277
G1 X119.409 Y100.994 E.01684
G1 X127.561 Y109.145 E.36277
G1 X127.026 Y109.145 E.01684
G1 X118.874 Y100.994 E.36277
G1 X118.339 Y100.994 E.01684
G1 X126.49 Y109.145 E.36275
G1 X125.955 Y109.145 E.01684
G1 X117.803 Y100.994 E.36277
G1 X117.268 Y100.994 E.01684
G1 X125.42 Y109.145 E.36277
G1 X124.885 Y109.145 E.01684
G1 X116.733 Y100.994 E.36277
G1 X116.198 Y100.994 E.01684
G1 X124.35 Y109.145 E.36277
G1 X123.814 Y109.145 E.01687
G1 X115.663 Y100.994 E.36275
G1 X115.127 Y100.994 E.01687
G1 X123.279 Y109.145 E.36277
G1 X122.744 Y109.145 E.01684
G1 X114.592 Y100.994 E.36277
G1 X114.057 Y100.994 E.01684
G1 X122.209 Y109.145 E.36277
G1 X121.674 Y109.145 E.01684
G1 X113.522 Y100.994 E.36277
G1 X112.987 Y100.994 E.01684
G1 X121.138 Y109.145 E.36275
G1 X120.603 Y109.145 E.01684
G1 X112.451 Y100.994 E.36277
G1 X111.916 Y100.994 E.01684
G1 X120.068 Y109.145 E.36277
G1 X119.533 Y109.145 E.01684
G1 X111.381 Y100.994 E.36277
G1 X110.953 Y100.994 E.01347
G1 X110.857 Y101.005 E.00304
G1 X118.997 Y109.145 E.36226
G1 X118.462 Y109.145 E.01684
G1 X110.38 Y101.063 E.35968
G1 X109.902 Y101.121 E.01515
G1 X117.927 Y109.145 E.35712
G1 X117.392 Y109.145 E.01684
G1 X109.425 Y101.178 E.35456
G1 X108.947 Y101.236 E.01515
G1 X116.857 Y109.145 E.352
G1 X116.321 Y109.145 E.01687
G1 X108.47 Y101.294 E.3494
G1 X107.992 Y101.352 E.01515
G1 X115.786 Y109.145 E.34684
G1 X115.251 Y109.145 E.01684
G1 X107.515 Y101.409 E.34428
G1 X107.038 Y101.467 E.01512
G1 X114.716 Y109.145 E.3417
G1 X114.18 Y109.145 E.01687
G1 X106.56 Y101.525 E.33912
G1 X106.083 Y101.583 E.01512
G1 X113.645 Y109.145 E.33654
G1 X113.11 Y109.145 E.01684
M73 P1 R129
G1 X105.605 Y101.64 E.334
G1 X105.128 Y101.698 E.01512
G1 X112.575 Y109.145 E.33142
G1 X112.04 Y109.145 E.01684
G1 X104.65 Y101.756 E.32886
G1 X104.173 Y101.814 E.01512
G1 X111.504 Y109.145 E.32626
G1 X110.969 Y109.145 E.01684
G1 X103.695 Y101.871 E.32372
G1 X103.218 Y101.929 E.01512
G1 X110.364 Y109.075 E.31802
G1 X109.755 Y109.002 E.0193
G1 X102.74 Y101.987 E.31219
G1 X102.263 Y102.045 E.01512
G1 X109.146 Y108.928 E.30632
G1 X108.537 Y108.854 E.01931
G1 X101.785 Y102.102 E.30049
G1 X101.308 Y102.16 E.01512
G1 X107.928 Y108.781 E.29464
G1 X107.32 Y108.707 E.01927
G1 X100.831 Y102.218 E.28878
G1 X100.353 Y102.276 E.01515
G1 X106.711 Y108.633 E.28293
G1 X106.102 Y108.56 E.0193
G1 X99.876 Y102.333 E.2771
G1 X99.398 Y102.391 E.01515
G1 X105.493 Y108.486 E.27125
G1 X104.884 Y108.412 E.01931
G1 X98.921 Y102.449 E.26538
G1 X98.443 Y102.507 E.01515
G1 X104.275 Y108.339 E.25955
G1 X103.666 Y108.265 E.01931
G1 X97.966 Y102.565 E.25367
G1 X97.488 Y102.622 E.01515
G1 X103.057 Y108.191 E.24784
G1 X102.449 Y108.118 E.01927
G1 X97.011 Y102.68 E.24201
G1 X96.533 Y102.738 E.01515
G1 X101.84 Y108.044 E.23616
G1 X101.231 Y107.97 E.01931
G1 X96.056 Y102.796 E.23028
G1 X95.578 Y102.853 E.01515
G1 X100.622 Y107.897 E.22448
G1 X100.013 Y107.823 E.01931
G1 X95.101 Y102.911 E.2186
G1 X94.624 Y102.969 E.01512
G1 X99.404 Y107.75 E.21275
G1 X98.795 Y107.676 E.01931
G1 X94.146 Y103.027 E.2069
G1 X93.669 Y103.084 E.01512
G1 X98.186 Y107.602 E.20105
G1 X97.578 Y107.529 E.01927
G1 X93.191 Y103.142 E.19524
G1 X92.714 Y103.2 E.01512
G1 X96.969 Y107.455 E.18936
G1 X96.36 Y107.381 E.01931
G1 X92.236 Y103.258 E.18351
G1 X91.759 Y103.315 E.01512
G1 X95.751 Y107.308 E.17768
G1 X95.142 Y107.234 E.01931
G1 X91.281 Y103.373 E.17183
G1 X90.804 Y103.431 E.01512
G1 X94.533 Y107.16 E.16595
G1 X93.924 Y107.087 E.0193
G1 X90.326 Y103.489 E.16012
G1 X89.849 Y103.546 E.01512
G1 X93.316 Y107.013 E.15429
G1 X92.707 Y106.939 E.01931
G1 X89.371 Y103.604 E.14844
G1 X88.894 Y103.662 E.01512
G1 X92.098 Y106.866 E.14259
G1 X91.489 Y106.792 E.01931
G1 X88.416 Y103.72 E.13674
G1 X87.939 Y103.777 E.01512
G1 X90.88 Y106.718 E.13089
G1 X90.271 Y106.645 E.0193
G1 X87.462 Y103.835 E.12503
G1 X86.984 Y103.893 E.01515
G1 X89.662 Y106.571 E.11918
G1 X89.053 Y106.498 E.0193
G1 X86.507 Y103.951 E.11333
G1 X86.029 Y104.008 E.01515
G1 X88.445 Y106.424 E.10752
G1 X87.836 Y106.35 E.01931
G1 X85.552 Y104.066 E.10165
G1 X85.074 Y104.124 E.01515
G1 X87.227 Y106.277 E.09582
G1 X86.618 Y106.203 E.01931
G1 X84.597 Y104.182 E.08994
G1 X84.119 Y104.239 E.01515
G1 X86.009 Y106.129 E.08411
G1 X85.4 Y106.056 E.0193
G1 X83.642 Y104.297 E.07826
G1 X83.164 Y104.355 E.01515
G1 X84.791 Y105.982 E.07241
G1 X84.183 Y105.908 E.01927
G1 X82.687 Y104.413 E.06656
G1 X82.209 Y104.47 E.01515
G1 X83.574 Y105.835 E.06075
G1 X82.965 Y105.761 E.01931
G1 X81.732 Y104.528 E.05487
G1 X81.255 Y104.586 E.01512
G1 X82.356 Y105.687 E.049
G1 X81.747 Y105.614 E.0193
G1 X80.777 Y104.644 E.04317
G1 X80.3 Y104.702 E.01512
G1 X81.138 Y105.54 E.03729
G1 X80.529 Y105.466 E.01931
G1 X79.822 Y104.759 E.03146
G1 X79.345 Y104.817 E.01512
G1 X79.92 Y105.393 E.02561
G1 X79.312 Y105.319 E.01927
G1 X78.867 Y104.875 E.01978
G1 X78.39 Y104.933 E.01512
G1 X78.703 Y105.246 E.01393
G1 X78.094 Y105.172 E.01931
G1 X77.912 Y104.99 E.0081
G1 X77.435 Y105.048 E.01512
G1 X77.679 Y105.293 E.01088
M204 S1000
M106 S84.15
;LAYER_CHANGE
;Z:0.35
;HEIGHT:0.15
;BEFORE_LAYER_CHANGE
G92 E0.0
;0.35


;WIPE_START
G1 F8640
G1 X77.435 Y105.048 E-.07984
G1 X77.912 Y104.99 E-.11095
G1 X78.094 Y105.172 E-.05943
G1 X78.703 Y105.246 E-.14165
G1 X78.39 Y104.933 E-.10221
G1 X78.867 Y104.875 E-.11095
G1 X79.312 Y105.319 E-.14515
G1 X79.526 Y105.345 E-.04982
;WIPE_END
G1 Z.35 F720
M73 Q1 S130
;AFTER_LAYER_CHANGE
;0.35
; stop printing object fins.stl id:0 copy 0
G1 Z.75
G1 X77.303 Y108.411 F10800
G1 Z.35 F720
G1 E.8 F2100
;TYPE:Skirt/Brim
;WIDTH:0.42
G1 F3000
G1 X67.614 Y107.243 E.23602
G1 X66.421 Y106.705 E.03165
G1 X65.749 Y105.583 E.03163
G1 X65.836 Y104.278 E.03163
G1 X66.653 Y103.256 E.03164
G1 X67.614 Y102.897 E.02481
G1 X110.622 Y97.694 E1.04773
